X:1
T:Title
%%score { ( 1 3 ) | ( 2 4 ) }
L:1/8
M:4/4
K:F
V:1 treble nm="Grand Piano"
V:3 treble 
V:2 bass 
V:4 bass 
V:1
 z4 z2[Q:1/4=100] A>B | c2 d2 c>A z z/ G/ | A2 B2 A2 F>F | [EG]3 [EG] [FA]2 [GB]2 | A6 A>B | %5
 c2 d2 c>A F>G | A2 B2 A2 F>F | [EG]3 [EG] [FA]2 [EG]2 |[M:3/4] F6 |[M:1/4] c>c | %10
[M:4/4] z4 [Fd]2[K:bass][K:treble] z2 | c3 c c2 A>A | [CGB]2 [CGB]2 [CFA]2 [CFc]2 | [CEG]6 AB | %14
 c3 d cAGF |[M:9/8] [FB]2 [Fc]- [Fc] [Fd]2- [Fd][Fd]>[Fd] |[M:4/4] c2 z2 z4 |[M:3/4] [A,F]6 |] %18
V:2
 z4 z2 [F,CF]>[F,G,F] | [F,A,F]2 [F,B,F]2 [F,F]->[F,CF] F,->[F,B,] | %2
 [F,CF]2 [F,DF]2 [F,CF]2 [F,A,]>[F,A,] | [C,C]3 [C,C] [C,C]2 [C,C]2 | [F,CF]6 [F,CF]>[F,G,F] | %5
 [F,A,F]2 [F,B,F]2 [F,F]->[F,CF] [F,A,]>[F,B,F] | [F,CF]2 [F,DF]2 [F,CF]2 [F,A,]>[F,A,] | %7
 [C,C]3 [C,C] [C,C]2 [C,B,]2 |[M:3/4] [F,A,]6 |[M:1/4] [F,A,F]>[F,A,F] | %10
[M:4/4] [B,,B,]3 [B,,B,] .[B,,B,]2 [D,B,]>[E,B,] | [F,A,F]3 [F,A,F] [F,A,F]2 [F,CF]>[F,CF] | %12
 E,2 E,2 F,2 A,,2 | C,6 [F,CF][F,G,F] | [F,A,F]3 [F,B,F] [F,F]-[F,CF][F,B,F][F,A,] | %15
[M:9/8] [D,B,]2 [C,A,]- [C,A,] [B,,B,]2- [B,,B,][B,,B,]>[B,,B,] | %16
[M:4/4] C,->[C,C] z z/ G/ C,2 C,2 |[M:3/4] F,6 |] %18
V:3
 x8 | z4 z2 F2 | x8 | x8 | x8 | x8 | x8 | x8 |[M:3/4] x6 |[M:1/4] x2 | %10
[M:4/4] [Fd]3 [Fd] z[K:bass] C,[K:treble] [Fd]>[Fd] | x8 | x8 | x8 | x8 |[M:9/8] x9 | %16
[M:4/4] F->[FA] [=B,F]2 [CFA]2 [_B,EG]2 |[M:3/4] x6 |] %18
V:4
 x8 | z4 A,2 A,2 | x8 | x8 | x8 | z4 A,2 z2 | x8 | x8 |[M:3/4] x6 |[M:1/4] x2 |[M:4/4] x8 | x8 | %12
 x8 | x8 | z4 .A,2 z2 |[M:9/8] x9 |[M:4/4] A,2 D,2 z4 |[M:3/4] x6 |] %18

